lib/flags/s/850.svg

<svg xmlns="http://www.w3.org/2000/svg" fill="none" viewBox="0 0 16 12"><mask id="850_svg__a" width="16" height="12" x="0" y="0" mask-type="alpha" maskUnits="userSpaceOnUse"><path fill="#fff" d="M0 0H16V12H0z"/></mask><g mask="url(#850_svg__a)"><path fill="#F7FCFF" fill-rule="evenodd" d="M0 0V12H16V0H0Z" clip-rule="evenodd"/><mask id="850_svg__b" width="16" height="12" x="0" y="0" mask-type="alpha" maskUnits="userSpaceOnUse"><path fill="#fff" fill-rule="evenodd" d="M0 0V12H16V0H0Z" clip-rule="evenodd"/></mask><g mask="url(#850_svg__b)"><path fill="#E8AA00" fill-rule="evenodd" d="M8.57363 2.9635C8.57363 3.05575 8.99482 4.35253 8.99482 4.35253H6.95082L7.52537 3.23141C7.52537 3.23141 7.6093 3.01749 7.40384 2.9635C7.19838 2.9095 6.95082 3.14233 6.95082 3.14233C6.95082 3.14233 7.01122 2.76984 7.09193 2.68915C7.17264 2.60847 7.64438 2.40161 8.03758 2.40161C8.43078 2.40161 8.57363 2.87124 8.57363 2.9635ZM1.38862 2.43476C1.54544 2.36747 3.13909 2.84237 4.33287 3.19811L4.33289 3.19811L4.3329 3.19812L4.3329 3.19812C5.01938 3.40268 5.57363 3.56784 5.64639 3.56784C5.84568 3.56784 6.66584 4.41112 6.66584 4.41112V6.29699C6.66584 6.29699 4.07724 5.75968 1.63562 3.1115C1.27753 2.7569 1.14162 2.54075 1.38862 2.43476ZM6.42191 6.41595C6.42191 6.41595 6.1504 6.60302 5.85003 7.10396C5.70226 7.35038 5.69037 7.56747 5.68177 7.72445C5.67288 7.88657 5.66752 7.98458 5.51961 7.98458C5.34696 7.98458 5.2217 8.02192 5.11975 8.05232C5.04979 8.07318 4.99081 8.09076 4.93503 8.09076C4.79796 8.09076 4.53478 8.60818 4.66637 8.72792C4.79796 8.84767 5.34932 9.03852 5.34932 8.72792C5.34932 8.41733 5.49762 8.24088 5.76709 8.24088C6.03655 8.24088 6.51821 8.06246 6.51821 7.67098C6.51821 7.2795 7.04337 7.30746 7.04337 7.30746L6.42191 6.41595ZM11.7807 3.19811C12.9744 2.84237 14.5681 2.36747 14.7249 2.43476C14.9719 2.54075 14.836 2.7569 14.4779 3.1115C13.5192 4.82721 9.44768 6.29699 9.44768 6.29699V4.41112C9.44768 4.41112 10.2678 3.56784 10.4671 3.56784C10.5399 3.56784 11.0941 3.4027 11.7805 3.19814L11.7806 3.19814L11.7806 3.19811L11.7807 3.19811ZM9.69162 6.41595C9.69162 6.41595 9.96312 6.60302 10.2635 7.10396C10.4113 7.35038 10.4232 7.56747 10.4318 7.72445C10.4406 7.88657 10.446 7.98458 10.5939 7.98458C10.7666 7.98458 10.8918 8.02192 10.9938 8.05232C11.0637 8.07318 11.1227 8.09076 11.1785 8.09076C11.3156 8.09076 11.5787 8.60818 11.4472 8.72792C11.3156 8.84767 10.7642 9.03852 10.7642 8.72792C10.7642 8.41733 10.6159 8.24088 10.3464 8.24088C10.077 8.24088 9.59531 8.06246 9.59531 7.67098C9.59531 7.2795 9.07015 7.30746 9.07015 7.30746L9.69162 6.41595ZM6.25422 8.50148C6.25422 8.3305 7.07525 7.41866 7.07525 7.41866L7.99258 7.03154C7.99258 7.03154 7.9973 7.1189 8.00432 7.26397C8.01135 7.1189 8.01606 7.03154 8.01606 7.03154L8.93339 7.41866C8.93339 7.41866 9.75442 8.3305 9.75442 8.50148C9.75442 8.67245 8.17973 10.0657 8.01606 10.0657C8.01194 10.0657 8.00803 10.0638 8.00432 10.0601C8.00061 10.0638 7.9967 10.0657 7.99258 10.0657C7.82891 10.0657 6.25422 8.67245 6.25422 8.50148Z" clip-rule="evenodd"/><path fill="#46A000" d="M3.12326 5.49624L4.07208 5.18042C4.71336 7.10699 5.33155 8.35232 5.88716 8.89051L5.19141 9.60879C4.48823 8.92766 3.81202 7.56546 3.12326 5.49624Z"/><path fill="#0093E1" fill-rule="evenodd" d="M14.3458 5.16919H13.2772C13.2772 5.16919 13.5037 5.16919 13.5286 5.38805C13.5286 5.38805 13.5338 7.23501 13.5286 7.38012C13.5234 7.52524 13.2772 7.5746 13.2772 7.5746C13.2772 7.5746 14.5736 7.57856 14.3458 7.5746C14.1181 7.57065 14.0678 7.38012 14.0678 7.38012V5.38805C14.0678 5.21941 14.3458 5.16919 14.3458 5.16919ZM2.28267 7.42653C2.16171 7.11423 1.41486 5.20197 1.41486 5.20197H2.15422C2.02578 5.20197 1.97809 5.36547 1.97809 5.36547L2.49598 6.8421C2.49598 6.8421 2.99678 5.63652 2.99678 5.42274C2.99678 5.20895 2.78655 5.20197 2.78655 5.20197H3.75048L3.51761 5.27974C3.51761 5.27974 2.74632 7.04798 2.74632 7.42653C2.70956 7.51043 3.10142 7.56625 3.10142 7.56625H2.06633L2.28267 7.42653ZM11.1333 6.72822L11.7061 5.67277L11.723 6.84709L11.5455 6.7895L11.4197 7.57367L12.0532 6.35886L11.8423 6.27961L12.6264 5.43079L12.3594 6.57804L12.2074 6.44423L11.3091 8.12035L12.3118 6.97152L12.1185 6.87499L13.1087 6.22671L12.6776 7.28314L12.4371 7.11001L11.4197 8.39088L10.9977 8.2286L11.4197 6.72822H11.1333ZM10.8025 8.72988H10.4858V8.97082H10.2364L9.53019 9.79004H9.91998L10.0554 10.2513L10.2364 10.0885V10.2513L10.5904 10.0885L10.9289 10.3816L11.1814 9.25508L11.0114 9.13029L11.0987 9.05394L11.0114 8.72988H10.8025Z" clip-rule="evenodd"/><path fill="#F7FCFF" fill-rule="evenodd" d="M6.17176 4.00635C6.17176 4.00635 6.63706 4.32763 7.10235 4.32763C7.56765 4.32763 8.03294 4.00635 8.03294 4.00635C8.03294 4.00635 8.49823 4.32763 8.96353 4.32763C9.42882 4.32763 9.89412 4.00635 9.89412 4.00635V5.45679C9.89412 6.95649 8.03294 8.1188 8.03294 8.1188C8.03294 8.1188 6.08165 7.05158 6.17176 5.43898V4.00635Z" clip-rule="evenodd"/><mask id="850_svg__c" width="4" height="5" x="6" y="4" mask-type="alpha" maskUnits="userSpaceOnUse"><path fill="#fff" fill-rule="evenodd" d="M6.17176 4.00635C6.17176 4.00635 6.63706 4.32763 7.10235 4.32763C7.56765 4.32763 8.03294 4.00635 8.03294 4.00635C8.03294 4.00635 8.49823 4.32763 8.96353 4.32763C9.42882 4.32763 9.89412 4.00635 9.89412 4.00635V5.45679C9.89412 6.95649 8.03294 8.1188 8.03294 8.1188C8.03294 8.1188 6.08165 7.05158 6.17176 5.43898V4.00635Z" clip-rule="evenodd"/></mask><g fill-rule="evenodd" clip-rule="evenodd" mask="url(#850_svg__c)"><path fill="#2E42A5" d="M6.04001 3.90991H9.96001V5.41995H6.04001V3.90991Z"/><path fill="#AF0100" d="M6.79764 5.41992H6.46823V8.47213H6.79764V5.41992ZM7.35764 5.41992H7.02823V8.47213H7.35764V5.41992ZM7.58823 5.41992H7.91764V8.47213H7.58823V5.41992ZM8.47764 5.41992H8.14823V8.47213H8.47764V5.41992ZM8.70823 5.41992H9.03764V8.47213H8.70823V5.41992ZM9.59764 5.41992H9.26823V8.47213H9.59764V5.41992Z"/></g></g></g></svg>

<svg xmlns="http://www.w3.org/2000/svg" fill="none" viewBox="0 0 16 12"><g mask="url(#850_svg__VI_-_Virgin_Islands_(U_S_)"><path fill="#F7FCFF" fill-rule="evenodd" d="M0 0v12h16V0H0z" clip-rule="evenodd"/><g mask="url(#850_svg__VI_-_Virgin_Islands_(U_S_)"><path fill="#E8AA00" fill-rule="evenodd" d="M8.574 2.963c0 .093.42 1.39.42 1.39H6.952l.574-1.122s.084-.214-.121-.268c-.206-.054-.453.18-.453.18s.06-.373.14-.454c.082-.08.553-.287.947-.287.393 0 .536.47.536.561zm-7.185-.528c.156-.068 1.75.407 2.944.763.686.205 1.24.37 1.313.37.2 0 1.02.843 1.02.843v1.886s-2.589-.537-5.03-3.185c-.358-.355-.494-.571-.247-.677zm5.033 3.98s-.272.188-.572.689c-.148.246-.16.463-.168.62-.01.163-.015.26-.162.26-.173 0-.298.038-.4.068a.677.677 0 01-.185.039c-.137 0-.4.517-.269.637.132.12.683.31.683 0s.149-.487.418-.487c.27 0 .751-.179.751-.57 0-.392.525-.364.525-.364l-.621-.891zm5.359-3.217c1.193-.356 2.787-.83 2.944-.763.247.106.111.322-.247.676-.959 1.716-5.03 3.186-5.03 3.186V4.411s.82-.843 1.02-.843c.072 0 .626-.165 1.313-.37zM9.69 6.416s.272.187.572.688c.148.246.16.463.169.62.009.163.014.26.162.26.173 0 .298.038.4.068.07.021.129.039.184.039.137 0 .4.517.27.637-.133.12-.684.31-.684 0s-.148-.487-.418-.487-.75-.179-.75-.57c0-.392-.526-.364-.526-.364l.622-.891zM6.255 8.5c0-.17.821-1.082.821-1.082l.918-.387.011.232.012-.232.917.387s.821.912.821 1.082c0 .171-1.574 1.565-1.738 1.565a.017.017 0 01-.012-.006.017.017 0 01-.011.006c-.164 0-1.739-1.394-1.739-1.565z" clip-rule="evenodd"/><path fill="#46A000" d="M3.123 5.496l.949-.316c.641 1.927 1.26 3.172 1.815 3.71l-.696.719c-.703-.681-1.379-2.044-2.068-4.113z"/><path fill="#0093E1" fill-rule="evenodd" d="M14.346 5.17h-1.069s.227 0 .252.218c0 0 .005 1.847 0 1.992-.006.145-.252.195-.252.195s1.297.004 1.069 0c-.228-.004-.278-.195-.278-.195V5.388c0-.168.278-.219.278-.219zM2.283 7.426c-.121-.313-.868-2.225-.868-2.225h.74c-.13 0-.177.164-.177.164l.518 1.476s.5-1.205.5-1.42c0-.213-.21-.22-.21-.22h.964l-.232.078s-.772 1.768-.772 2.147c-.036.084.355.14.355.14H2.066l.217-.14zm8.85-.699l.573-1.055.017 1.174-.178-.057-.125.784.633-1.215-.21-.08.783-.848-.267 1.147-.152-.134-.898 1.676 1.003-1.148-.194-.097.99-.648-.43 1.056-.24-.173L11.42 8.39l-.422-.162.422-1.5h-.287zm-.33 2.002h-.317v.24h-.25l-.706.82h.39l.135.461.181-.162v.162l.354-.162.339.293.252-1.127-.17-.125.088-.076-.088-.324h-.208z" clip-rule="evenodd"/><path fill="#F7FCFF" fill-rule="evenodd" d="M6.172 4.006s.465.322.93.322c.466 0 .93-.322.93-.322s.466.322.932.322c.465 0 .93-.322.93-.322v1.45c0 1.5-1.861 2.663-1.861 2.663s-1.951-1.067-1.861-2.68V4.006z" clip-rule="evenodd"/><g fill-rule="evenodd" clip-rule="evenodd" mask="url(#850_svg__VI_-_Virgin_Islands_(U_S_)"><path fill="#2E42A5" d="M6.04 3.91h3.92v1.51H6.04V3.91z"/><path fill="#AF0100" d="M6.798 5.42h-.33v3.052h.33V5.42zm.56 0h-.33v3.052h.33V5.42zm.23 0h.33v3.052h-.33V5.42zm.89 0h-.33v3.052h.33V5.42zm.23 0h.33v3.052h-.33V5.42zm.89 0h-.33v3.052h.33V5.42z"/></g></g></g></svg>
